launcher/android/assets/skins/day/svg/compass_2_scale.svg

<svg enable-background="new 0 0 379.33 378.72" height="378.718" viewBox="0 0 379.33 378.72" width="379.33" xmlns="http://www.w3.org/2000/svg" xmlns:xlink="http://www.w3.org/1999/xlink"><radialGradient id="a" cx="189.106" cy="189.666" gradientUnits="userSpaceOnUse" r="181.5"><stop offset=".337838" stop-color="#fff"/><stop offset="1" stop-color="#87a876"/></radialGradient><linearGradient id="b"><stop offset="0" stop-color="#4a5b41"/><stop offset="1"/></linearGradient><linearGradient id="c" gradientTransform="matrix(.000488290745 -.999999880786 .999999880786 .000488290745 -.045182463399 1.050335469034)" gradientUnits="objectBoundingBox" x1=".502833" x2="1.06501" xlink:href="#b" y1=".54777" y2=".54777"/><linearGradient id="d" gradientUnits="objectBoundingBox" x1="-.0196457" x2=".541833" xlink:href="#b" y1=".499627" y2=".499626"/><linearGradient id="e" gradientTransform="matrix(-.999851138191 -.017254027284 .017254027284 -.999851138191 2.017605731177 1.039479207802)" gradientUnits="objectBoundingBox" x1="1.01329" x2="1.56659" xlink:href="#b" y1=".511036" y2=".511036"/><g stroke-linejoin="round"><path d="m189.106 9.16631c99.411 0 180 80.81259 180 180.49969 0 99.688-80.589 180.5-180 180.5-99.4113 0-180.00004-80.812-180.00004-180.5 0-99.6871 80.58864-180.49969 180.00004-180.49969zm.25 55.37199c-69.036 0-125.0001 55.9647-125.0001 124.9997 0 69.036 55.9641 125 125.0001 125 69.035 0 125-55.964 125-125 0-69.035-55.964-124.9997-125-124.9997z" fill="url(#a)" fill-rule="evenodd" stroke="#161f11" stroke-width="2"/><g fill="none" stroke="#000"><path d="m298.302 251.566 20.958 12.1" stroke-width="2"/><path d="m252.312 297.71 12.044 20.86" stroke-width="2"/><path d="m189.356 314.788v23.878" stroke-width="4"/><path d="m314.438 188.666h24.918" stroke-width="4"/><path d="m297.673 126.129 21.587-12.463" stroke-width="2"/><path d="m251.555 80.9338 12.801-22.1713" stroke-width="2"/><path d="m189.356 64.2773v-25.611" stroke-width="4"/><path d="m127.06 80.7669-12.704-22.0045" stroke-width="2"/><path d="m81.4645 126.375-27.8464-16.077" stroke-width="2"/><path d="m64.1671 188.666h-24.811" stroke-width="4"/><path d="m80.9419 251.259-21.4897 12.407" stroke-width="2"/><path d="m126.5 297.679-12.082 20.927" stroke-width="2"/></g><path d="m210.889 345.268-14.68.596c-.244-2.255-.792-3.977-1.645-5.167-1.389-1.935-3.405-2.927-6.051-2.976-1.972-.036-3.5.434-4.584 1.411s-1.638 2.121-1.662 3.434c-.023 1.243.429 2.366 1.355 3.369.933 1.003 3.357 1.979 7.271 2.925 6.409 1.584 10.963 3.601 13.662 6.054 2.726 2.453 4.055 5.537 3.987 9.252-.045 2.451-.799 4.75-2.263 6.897-1.463 2.147-3.634 3.816-6.514 5.006-2.88 1.191-6.809 1.74-11.788 1.649-6.103-.112-10.736-1.348-13.898-3.709-3.162-2.36-5.002-6.059-5.521-11.098l14.681-.616c.276 2.332.913 4.037 1.911 5.114.998 1.078 2.393 1.633 4.184 1.666 1.472.027 2.588-.319 3.348-1.038s1.149-1.602 1.168-2.651c.014-.764-.147-1.458-.482-2.082-.322-.638-1.776-1.255-4.363-1.851-6.39-1.513-10.961-3.009-13.712-4.487s-4.739-3.285-5.964-5.423c-1.225-2.137-1.813-4.514-1.765-7.132.056-3.069.955-5.885 2.697-8.447s4.146-4.485 7.211-5.77c3.066-1.284 6.911-1.883 11.535-1.799 8.124.149 13.721 1.803 16.792 4.96 3.071 3.158 4.768 7.129 5.09 11.913z" fill="url(#c)" stroke="#e3fcd1" stroke-width="2"/><path d="m378.33 167.722-.216 39.332-11.333-.062.136-24.666-6.667-.037-.125 22.667-9.999-.055.124-22.667-8.666-.047-.14 25.333-11.333-.063.22-39.999z" fill="url(#d)" stroke="#e3fcd1" stroke-width="2"/><path d="m166.773.99999h13.906l18.094 26.93751v-26.93751h14v48.00001h-14l-18-26.7813v26.7813h-14z" fill="#f00" stroke="#000" stroke-width="2"/><path d="m1 219.428.25842-14.31 25.10568-4.475-24.89109-7.409.26933-14.914 25.23726-6.566-25.02247-5.328.2586-14.32 47.80057 11.479-.2637 14.602-30.3664 7.901 30.0623 8.94-.2632 14.57z" fill="url(#e)" stroke="#e3fcd1" stroke-width="2"/></g></svg>

﻿<?xml version="1.0" encoding="utf-8"?>
<!DOCTYPE svg PUBLIC "-//W3C//DTD SVG 1.1//EN" "http://www.w3.org/Graphics/SVG/1.1/DTD/svg11.dtd">
<svg xmlns="http://www.w3.org/2000/svg" xmlns:xlink="http://www.w3.org/1999/xlink" version="1.1" baseProfile="full" width="379.33" height="378.718" viewBox="0 0 379.33 378.72" enable-background="new 0 0 379.33 378.72" xml:space="preserve">
	<radialGradient id="SVGID_Fill1_" cx="189.106" cy="189.666" r="181.5" gradientUnits="userSpaceOnUse">
		<stop offset="0.337838" stop-color="#FFFFFF" stop-opacity="1"/>
		<stop offset="1" stop-color="#87A876" stop-opacity="1"/>
	</radialGradient>
	<path fill="url(#SVGID_Fill1_)" fill-rule="evenodd" stroke-width="2" stroke-linejoin="round" stroke="#161F11" stroke-opacity="1" d="M 189.106,9.16631C 288.517,9.16631 369.106,89.9789 369.106,189.666C 369.106,289.354 288.517,370.166 189.106,370.166C 89.6947,370.166 9.10596,289.354 9.10596,189.666C 9.10596,89.9789 89.6946,9.16631 189.106,9.16631 Z M 189.356,64.5383C 120.32,64.5383 64.3559,120.503 64.3559,189.538C 64.3559,258.574 120.32,314.538 189.356,314.538C 258.391,314.538 314.356,258.574 314.356,189.538C 314.356,120.503 258.392,64.5383 189.356,64.5383 Z "/>
	<g>
		<line fill="none" stroke-width="2" stroke-linejoin="round" stroke="#000000" stroke-opacity="1" x1="298.302" y1="251.566" x2="319.26" y2="263.666"/>
		<line fill="none" stroke-width="2" stroke-linejoin="round" stroke="#000000" stroke-opacity="1" x1="252.312" y1="297.71" x2="264.356" y2="318.57"/>
		<line fill="none" stroke-width="4" stroke-linejoin="round" stroke="#000000" stroke-opacity="1" x1="189.356" y1="314.788" x2="189.356" y2="338.666"/>
		<line fill="none" stroke-width="4" stroke-linejoin="round" stroke="#000000" stroke-opacity="1" x1="314.438" y1="188.666" x2="339.356" y2="188.666"/>
		<line fill="none" stroke-width="2" stroke-linejoin="round" stroke="#000000" stroke-opacity="1" x1="297.673" y1="126.129" x2="319.26" y2="113.666"/>
		<line fill="none" stroke-width="2" stroke-linejoin="round" stroke="#000000" stroke-opacity="1" x1="251.555" y1="80.9338" x2="264.356" y2="58.7625"/>
		<line fill="none" stroke-width="4" stroke-linejoin="round" stroke="#000000" stroke-opacity="1" x1="189.356" y1="64.2773" x2="189.356" y2="38.6663"/>
		<line fill="none" stroke-width="2" stroke-linejoin="round" stroke="#000000" stroke-opacity="1" x1="127.06" y1="80.7669" x2="114.356" y2="58.7624"/>
		<line fill="none" stroke-width="2" stroke-linejoin="round" stroke="#000000" stroke-opacity="1" x1="81.4645" y1="126.375" x2="53.6181" y2="110.298"/>
		<line fill="none" stroke-width="4" stroke-linejoin="round" stroke="#000000" stroke-opacity="1" x1="64.1671" y1="188.666" x2="39.3561" y2="188.666"/>
		<line fill="none" stroke-width="2" stroke-linejoin="round" stroke="#000000" stroke-opacity="1" x1="80.9419" y1="251.259" x2="59.4522" y2="263.666"/>
		<line fill="none" stroke-width="2" stroke-linejoin="round" stroke="#000000" stroke-opacity="1" x1="126.5" y1="297.679" x2="114.418" y2="318.606"/>
	</g>
	<g>
		<linearGradient id="SVGID_Fill2_" gradientUnits="objectBoundingBox" x1="0.502833" y1="0.54777" x2="1.06501" y2="0.54777" gradientTransform="rotate(-89.972023 0.502833 0.547770)">
			<stop offset="0" stop-color="#4A5B41" stop-opacity="1"/>
			<stop offset="1" stop-color="#000000" stop-opacity="1"/>
		</linearGradient>
		<path fill="url(#SVGID_Fill2_)" stroke-width="2" stroke-linejoin="round" stroke="#E3FCD1" stroke-opacity="1" d="M 210.889,345.268L 196.209,345.864C 195.965,343.609 195.417,341.887 194.564,340.697C 193.175,338.762 191.159,337.77 188.513,337.721C 186.541,337.685 185.013,338.155 183.929,339.132C 182.845,340.109 182.291,341.253 182.267,342.566C 182.244,343.809 182.696,344.932 183.622,345.935C 184.555,346.938 186.979,347.914 190.893,348.86C 197.302,350.444 201.856,352.461 204.555,354.914C 207.281,357.367 208.61,360.451 208.542,364.166C 208.497,366.617 207.743,368.916 206.279,371.063C 204.816,373.21 202.645,374.879 199.765,376.069C 196.885,377.26 192.956,377.809 187.977,377.718C 181.874,377.606 177.241,376.37 174.079,374.009C 170.917,371.649 169.077,367.95 168.558,362.911L 183.239,362.295C 183.515,364.627 184.152,366.332 185.15,367.409C 186.148,368.487 187.543,369.042 189.334,369.075C 190.806,369.102 191.922,368.756 192.682,368.037C 193.442,367.318 193.831,366.435 193.85,365.386C 193.864,364.622 193.703,363.928 193.368,363.304C 193.046,362.666 191.592,362.049 189.005,361.453C 182.615,359.94 178.044,358.444 175.293,356.966C 172.542,355.488 170.554,353.681 169.329,351.543C 168.104,349.406 167.516,347.029 167.564,344.411C 167.62,341.342 168.519,338.526 170.261,335.964C 172.003,333.402 174.407,331.479 177.472,330.194C 180.538,328.91 184.383,328.311 189.007,328.395C 197.131,328.544 202.728,330.198 205.799,333.355C 208.87,336.513 210.567,340.484 210.889,345.268 Z "/>
	</g>
	<g>
		<linearGradient id="SVGID_Fill3_" gradientUnits="objectBoundingBox" x1="-0.0196457" y1="0.499627" x2="0.541833" y2="0.499626">
			<stop offset="0" stop-color="#4A5B41" stop-opacity="1"/>
			<stop offset="1" stop-color="#000000" stop-opacity="1"/>
		</linearGradient>
		<path fill="url(#SVGID_Fill3_)" stroke-width="2" stroke-linejoin="round" stroke="#E3FCD1" stroke-opacity="1" d="M 378.33,167.722L 378.114,207.054L 366.781,206.992L 366.917,182.326L 360.25,182.289L 360.125,204.956L 350.126,204.901L 350.25,182.234L 341.584,182.187L 341.444,207.52L 330.111,207.457L 330.331,167.458L 378.33,167.722 Z "/>
	</g>
	<g>
		<path fill="#FF0000" fill-opacity="1" stroke-width="2" stroke-linejoin="round" stroke="#000000" stroke-opacity="1" d="M 166.773,0.99999L 180.679,0.99999L 198.773,27.9375L 198.773,0.99999L 212.773,0.99999L 212.773,49L 198.773,49L 180.773,22.2187L 180.773,49L 166.773,49L 166.773,0.99999 Z "/>
	</g>
	<g>
		<linearGradient id="SVGID_Fill4_" gradientUnits="objectBoundingBox" x1="1.01329" y1="0.511036" x2="1.56659" y2="0.511036" gradientTransform="rotate(180.988632 1.013287 0.511036)">
			<stop offset="0" stop-color="#4A5B41" stop-opacity="1"/>
			<stop offset="1" stop-color="#000000" stop-opacity="1"/>
		</linearGradient>
		<path fill="url(#SVGID_Fill4_)" stroke-width="2" stroke-linejoin="round" stroke="#E3FCD1" stroke-opacity="1" d="M 1,219.428L 1.25842,205.118L 26.3641,200.643L 1.47301,193.234L 1.74234,178.32L 26.9796,171.754L 1.95713,166.426L 2.21573,152.106L 50.0163,163.585L 49.7526,178.187L 19.3862,186.088L 49.4485,195.028L 49.1853,209.598L 1,219.428 Z "/>
	</g>
</svg>
